src/icons/google.svg

<?xml version="1.0" encoding="UTF-8"?>
<svg xmlns="http://www.w3.org/2000/svg" xmlns:xlink="http://www.w3.org/1999/xlink" width="32" height="32" viewBox="0 0 32 32" version="1.1">
<g id="surface1">
<path style=" stroke:none;fill-rule:nonzero;fill:rgb(100%,100%,100%);fill-opacity:1;" d="M 0 4.800781 C 0 2.140625 2.140625 0 4.800781 0 L 27.199219 0 C 29.859375 0 32 2.140625 32 4.800781 L 32 27.199219 C 32 29.859375 29.859375 32 27.199219 32 L 4.800781 32 C 2.140625 32 0 29.859375 0 27.199219 Z M 0 4.800781 "/>
<path style=" stroke:none;fill-rule:nonzero;fill:rgb(25.882354%,52.156866%,95.686275%);fill-opacity:1;" d="M 24.125 25 C 26.9375 22.375 28.1875 18 27.4375 13.8125 L 16.25 13.8125 L 16.25 18.4375 L 22.625 18.4375 C 22.375 19.9375 21.5 21.1875 20.25 22 Z M 24.125 25 "/>
<path style=" stroke:none;fill-rule:nonzero;fill:rgb(20.392157%,65.882355%,32.549021%);fill-opacity:1;" d="M 5.625 21.3125 C 7.289062 24.59375 10.371094 26.929688 13.980469 27.648438 C 17.589844 28.367188 21.328125 27.390625 24.125 25 L 20.25 22 C 16.9375 24.1875 11.4375 23.375 9.5625 18.25 Z M 5.625 21.3125 "/>
<path style=" stroke:none;fill-rule:nonzero;fill:rgb(98.431373%,73.725492%,0.784314%);fill-opacity:1;" d="M 9.5625 18.25 C 9.0625 16.6875 9.0625 15.25 9.5625 13.6875 L 5.625 10.625 C 4.1875 13.5 3.75 17.5625 5.625 21.3125 Z M 9.5625 18.25 "/>
<path style=" stroke:none;fill-rule:nonzero;fill:rgb(91.764706%,26.274511%,20.784314%);fill-opacity:1;" d="M 9.5625 13.6875 C 10.9375 9.375 16.8125 6.875 20.75 10.5625 L 24.1875 7.1875 C 19.3125 2.5 9.8125 2.6875 5.625 10.625 Z M 9.5625 13.6875 "/>
</g>
</svg>

<svg role="img" viewBox="0 0 32 32" xmlns="http://www.w3.org/2000/svg"><path d="M0 4.8C0 2.14 2.14 0 4.8 0h22.4C29.86 0 32 2.14 32 4.8v22.4c0 2.66-2.14 4.8-4.8 4.8H4.8A4.79 4.79 0 0 1 0 27.2Zm0 0" style="stroke:none;fill-rule:nonzero;fill:rgb(100%,100%,100%);fill-opacity:1"/><path d="M24.125 25c2.813-2.625 4.063-7 3.313-11.187H16.25v4.624h6.375c-.25 1.5-1.125 2.75-2.375 3.563Zm0 0" style="stroke:none;fill-rule:nonzero;fill:rgb(25.882354%,52.156866%,95.686275%);fill-opacity:1"/><path d="M5.625 21.313A12.004 12.004 0 0 0 24.125 25l-3.875-3.001c-3.312 2.188-8.812 1.375-10.687-3.75Zm0 0" style="stroke:none;fill-rule:nonzero;fill:rgb(20.392157%,65.882355%,32.549021%);fill-opacity:1"/><path d="M9.563 18.25c-.5-1.562-.5-3 0-4.562l-3.938-3.063c-1.437 2.875-1.875 6.938 0 10.688Zm0 0" style="stroke:none;fill-rule:nonzero;fill:rgb(98.431373%,73.725492%,0.784314%);fill-opacity:1"/><path d="M9.563 13.688c1.374-4.313 7.25-6.813 11.187-3.126l3.438-3.374C19.313 2.5 9.813 2.688 5.625 10.625Zm0 0" style="stroke:none;fill-rule:nonzero;fill:rgb(91.764706%,26.274511%,20.784314%);fill-opacity:1"/></svg>
